app/assets/images/niveauB1-blanc.svg

<svg width="20" height="20" viewBox="0 0 20 20" fill="none" xmlns="http://www.w3.org/2000/svg">
<path d="M6.6035 5.16636C6.65683 5.16636 6.70016 5.18414 6.7335 5.21969C6.76683 5.25525 6.7835 5.29969 6.7835 5.35303V7.29636C6.7835 7.35414 6.7635 7.40303 6.7235 7.44303C6.68572 7.48081 6.63794 7.49969 6.58016 7.49969C6.54905 7.49969 6.51794 7.49525 6.48683 7.48636C6.45794 7.47525 6.43683 7.46081 6.4235 7.44303L5.20016 5.88969V7.31303C5.20016 7.36636 5.18238 7.41081 5.14683 7.44636C5.1135 7.48192 5.06905 7.49969 5.0135 7.49969C4.96016 7.49969 4.91683 7.48192 4.8835 7.44636C4.85016 7.41081 4.8335 7.36636 4.8335 7.31303V5.36969C4.8335 5.31192 4.85238 5.26414 4.89016 5.22636C4.93016 5.18636 4.97905 5.16636 5.03683 5.16636C5.07016 5.16636 5.10238 5.17303 5.1335 5.18636C5.16683 5.19969 5.19127 5.21747 5.20683 5.23969L6.42016 6.78636V5.35303C6.42016 5.29969 6.43683 5.25525 6.47016 5.21969C6.50572 5.18414 6.55016 5.16636 6.6035 5.16636Z" fill="#FBF9FA"/>
<path d="M7.628 7.29636C7.628 7.35414 7.60911 7.40303 7.57133 7.44303C7.53356 7.48081 7.48578 7.49969 7.428 7.49969C7.37022 7.49969 7.32245 7.48081 7.28467 7.44303C7.24689 7.40303 7.228 7.35414 7.228 7.29636V5.91969C7.228 5.86192 7.24689 5.81414 7.28467 5.77636C7.32245 5.73636 7.37022 5.71636 7.428 5.71636C7.48578 5.71636 7.53356 5.73636 7.57133 5.77636C7.60911 5.81414 7.628 5.86192 7.628 5.91969V7.29636ZM7.42467 5.49969C7.34911 5.49969 7.29578 5.48747 7.26467 5.46303C7.23356 5.43858 7.218 5.39525 7.218 5.33303V5.26969C7.218 5.20747 7.23467 5.16414 7.268 5.13969C7.30133 5.11525 7.35467 5.10303 7.428 5.10303C7.50578 5.10303 7.56022 5.11525 7.59133 5.13969C7.62245 5.16414 7.638 5.20747 7.638 5.26969V5.33303C7.638 5.39747 7.62133 5.44192 7.588 5.46636C7.55689 5.48858 7.50245 5.49969 7.42467 5.49969Z" fill="#FBF9FA"/>
<path d="M9.40909 5.71969C9.46243 5.71969 9.50687 5.73747 9.54243 5.77303C9.57798 5.80636 9.59576 5.84858 9.59576 5.89969C9.59576 5.92636 9.58687 5.95969 9.56909 5.99969L8.94576 7.37303C8.93021 7.41081 8.90687 7.44081 8.87576 7.46303C8.84687 7.48525 8.81354 7.49747 8.77576 7.49969L8.74576 7.50303C8.70798 7.50303 8.67243 7.49192 8.63909 7.46969C8.60798 7.44525 8.58354 7.41303 8.56576 7.37303L7.94576 5.99969C7.93021 5.96414 7.92243 5.92858 7.92243 5.89303C7.92243 5.84858 7.94132 5.80858 7.97909 5.77303C8.01687 5.73525 8.06354 5.71636 8.11909 5.71636C8.16132 5.71636 8.20021 5.72747 8.23576 5.74969C8.27132 5.77192 8.29798 5.80303 8.31576 5.84303L8.77576 6.89636L9.23243 5.84636C9.25021 5.80414 9.27465 5.77192 9.30576 5.74969C9.33687 5.72747 9.37132 5.71747 9.40909 5.71969Z" fill="#FBF9FA"/>
<path d="M11.4946 6.56636C11.4923 6.61969 11.4712 6.66303 11.4312 6.69636C11.3912 6.72969 11.3446 6.74636 11.2912 6.74636H10.1912C10.2179 6.87747 10.279 6.98081 10.3746 7.05636C10.4701 7.12969 10.5779 7.16636 10.6979 7.16636C10.789 7.16636 10.8601 7.15858 10.9112 7.14303C10.9623 7.12525 11.0023 7.10747 11.0312 7.08969C11.0623 7.06969 11.0835 7.05636 11.0946 7.04969C11.1346 7.02969 11.1723 7.01969 11.2079 7.01969C11.2546 7.01969 11.2946 7.03636 11.3279 7.06969C11.3612 7.10303 11.3779 7.14192 11.3779 7.18636C11.3779 7.24636 11.3468 7.30081 11.2846 7.34969C11.2223 7.40081 11.139 7.44414 11.0346 7.47969C10.9301 7.51525 10.8246 7.53303 10.7179 7.53303C10.5312 7.53303 10.3679 7.49414 10.2279 7.41636C10.0901 7.33858 9.98345 7.23192 9.9079 7.09636C9.83234 6.95858 9.79456 6.80414 9.79456 6.63303C9.79456 6.44192 9.83456 6.27414 9.91456 6.12969C9.99456 5.98525 10.1001 5.87525 10.2312 5.79969C10.3623 5.72192 10.5023 5.68303 10.6512 5.68303C10.7979 5.68303 10.9357 5.72303 11.0646 5.80303C11.1957 5.88303 11.3001 5.99081 11.3779 6.12636C11.4557 6.26192 11.4946 6.40858 11.4946 6.56636ZM10.6512 6.04969C10.3935 6.04969 10.2412 6.17081 10.1946 6.41303H11.0679V6.38969C11.059 6.29636 11.0135 6.21636 10.9312 6.14969C10.849 6.08303 10.7557 6.04969 10.6512 6.04969Z" fill="#FBF9FA"/>
<path d="M13.2845 5.68303C13.3423 5.68303 13.3901 5.70192 13.4278 5.73969C13.4656 5.77747 13.4845 5.82636 13.4845 5.88636V7.29636C13.4845 7.35414 13.4656 7.40303 13.4278 7.44303C13.3901 7.48081 13.3423 7.49969 13.2845 7.49969C13.2267 7.49969 13.179 7.48081 13.1412 7.44303C13.1056 7.40525 13.0867 7.35747 13.0845 7.29969C13.029 7.36414 12.9534 7.41969 12.8578 7.46636C12.7645 7.51081 12.6656 7.53303 12.5612 7.53303C12.4078 7.53303 12.269 7.49414 12.1445 7.41636C12.0201 7.33636 11.9212 7.22636 11.8478 7.08636C11.7767 6.94636 11.7412 6.78747 11.7412 6.60969C11.7412 6.43192 11.7767 6.27303 11.8478 6.13303C11.919 5.99081 12.0156 5.88081 12.1378 5.80303C12.2623 5.72303 12.399 5.68303 12.5478 5.68303C12.6545 5.68303 12.7545 5.70303 12.8478 5.74303C12.9412 5.78081 13.0201 5.82969 13.0845 5.88969V5.88636C13.0845 5.82858 13.1034 5.78081 13.1412 5.74303C13.179 5.70303 13.2267 5.68303 13.2845 5.68303ZM12.6112 7.16636C12.7556 7.16636 12.8734 7.11414 12.9645 7.00969C13.0556 6.90303 13.1012 6.76969 13.1012 6.60969C13.1012 6.44969 13.0556 6.31636 12.9645 6.20969C12.8734 6.10303 12.7556 6.04969 12.6112 6.04969C12.469 6.04969 12.3523 6.10303 12.2612 6.20969C12.1701 6.31636 12.1245 6.44969 12.1245 6.60969C12.1245 6.76969 12.169 6.90303 12.2578 7.00969C12.349 7.11414 12.4667 7.16636 12.6112 7.16636Z" fill="#FBF9FA"/>
<path d="M15.2088 5.71636C15.2666 5.71636 15.3143 5.73636 15.3521 5.77636C15.3899 5.81414 15.4088 5.86192 15.4088 5.91969V6.76636C15.4088 7.00636 15.3421 7.19414 15.2088 7.32969C15.0777 7.46525 14.8899 7.53303 14.6454 7.53303C14.401 7.53303 14.2132 7.46525 14.0821 7.32969C13.951 7.19414 13.8854 7.00636 13.8854 6.76636V5.91969C13.8854 5.86192 13.9043 5.81414 13.9421 5.77636C13.9799 5.73636 14.0277 5.71636 14.0854 5.71636C14.1432 5.71636 14.191 5.73636 14.2288 5.77636C14.2666 5.81414 14.2854 5.86192 14.2854 5.91969V6.76636C14.2854 6.90192 14.3154 7.00303 14.3754 7.06969C14.4354 7.13414 14.5254 7.16636 14.6454 7.16636C14.7677 7.16636 14.8588 7.13414 14.9188 7.06969C14.9788 7.00303 15.0088 6.90192 15.0088 6.76636V5.91969C15.0088 5.86192 15.0277 5.81414 15.0654 5.77636C15.1032 5.73636 15.151 5.71636 15.2088 5.71636Z" fill="#FBF9FA"/>
<path fill-rule="evenodd" clip-rule="evenodd" d="M10 18.75C14.8325 18.75 18.75 14.8325 18.75 10C18.75 5.16751 14.8325 1.25 10 1.25C5.16751 1.25 1.25 5.16751 1.25 10C1.25 14.8325 5.16751 18.75 10 18.75ZM10 20C15.5228 20 20 15.5228 20 10C20 4.47715 15.5228 0 10 0C4.47715 0 0 4.47715 0 10C0 15.5228 4.47715 20 10 20Z" fill="#FBF9FA"/>
<path d="M7.24824 11.1885C7.55741 11.311 7.80824 11.4977 8.00074 11.7485C8.19908 11.9993 8.29824 12.3231 8.29824 12.7197C8.29824 13.4139 8.09991 13.8981 7.70324 14.1722C7.30658 14.4464 6.83408 14.5835 6.28574 14.5835H4.10699C3.95533 14.5835 3.82699 14.5339 3.72199 14.4347C3.62283 14.3297 3.57324 14.2014 3.57324 14.0497V8.99225C3.57324 8.84058 3.62283 8.71516 3.72199 8.616C3.82699 8.511 3.95533 8.4585 4.10699 8.4585H6.31199C7.42033 8.4585 7.97449 8.97766 7.97449 10.016C7.97449 10.2785 7.91033 10.5118 7.78199 10.716C7.65949 10.9143 7.48158 11.0718 7.24824 11.1885ZM6.83699 10.2085C6.83699 9.96933 6.77574 9.79141 6.65324 9.67475C6.53658 9.55225 6.37033 9.491 6.15449 9.491H4.71074V10.856H6.18074C6.35574 10.856 6.50741 10.7977 6.63574 10.681C6.76991 10.5643 6.83699 10.4068 6.83699 10.2085ZM6.28574 13.5772C6.55991 13.5772 6.77283 13.5043 6.92449 13.3585C7.08199 13.2127 7.16074 12.9997 7.16074 12.7197C7.16074 12.3756 7.07033 12.151 6.88949 12.046C6.70866 11.941 6.48699 11.8885 6.22449 11.8885H4.71074V13.5772H6.28574Z" fill="#FBF9FA"/>
<path d="M10.6631 8.4585C10.809 8.4585 10.9315 8.511 11.0306 8.616C11.1298 8.71516 11.1794 8.84058 11.1794 8.99225V14.0497C11.1794 14.2014 11.124 14.3297 11.0131 14.4347C10.9023 14.5339 10.7652 14.5835 10.6019 14.5835C10.4386 14.5835 10.3044 14.5339 10.1994 14.4347C10.0944 14.3297 10.0419 14.2014 10.0419 14.0497V9.90225L9.49938 10.2347C9.41188 10.2872 9.31855 10.3135 9.21938 10.3135C9.07355 10.3135 8.94813 10.2581 8.84313 10.1472C8.74397 10.0364 8.69438 9.91391 8.69438 9.77975C8.69438 9.68641 8.71772 9.59891 8.76438 9.51725C8.81688 9.43558 8.88397 9.37141 8.96563 9.32475L10.2869 8.53725C10.3861 8.48475 10.5115 8.4585 10.6631 8.4585Z" fill="#FBF9FA"/>
<path d="M16.2391 11.521C16.3791 11.521 16.4958 11.5677 16.5891 11.661C16.6825 11.7485 16.7291 11.8622 16.7291 12.0022C16.7291 12.1422 16.6825 12.2589 16.5891 12.3522C16.4958 12.4397 16.3791 12.4835 16.2391 12.4835H15.0141V13.6297C15.0141 13.7931 14.9587 13.9272 14.8479 14.0322C14.7429 14.1372 14.6087 14.1897 14.4454 14.1897C14.2821 14.1897 14.145 14.1372 14.0341 14.0322C13.9291 13.9272 13.8766 13.7931 13.8766 13.6297V12.4835H12.6779C12.5379 12.4835 12.4212 12.4368 12.3279 12.3435C12.2346 12.2502 12.1879 12.1335 12.1879 11.9935C12.1879 11.8535 12.2346 11.7397 12.3279 11.6522C12.4212 11.5647 12.5379 11.521 12.6779 11.521H13.8766V10.2172C13.8766 10.0539 13.9291 9.91975 14.0341 9.81475C14.145 9.70975 14.285 9.65725 14.4541 9.65725C14.6175 9.65725 14.7516 9.70975 14.8566 9.81475C14.9616 9.91975 15.0141 10.0539 15.0141 10.2172V11.521H16.2391Z" fill="#FBF9FA"/>
</svg>

<svg width="20" height="20" fill="none" xmlns="http://www.w3.org/2000/svg"><path d="M6.604 5.166a.17.17 0 01.13.054c.033.035.05.08.05.133v1.943a.2.2 0 01-.204.204.338.338 0 01-.093-.014.139.139 0 01-.064-.043L5.2 5.89v1.423a.18.18 0 01-.053.133.174.174 0 01-.134.054.17.17 0 01-.13-.054.187.187 0 01-.05-.133V5.37a.2.2 0 01.203-.203c.034 0 .066.006.098.02a.158.158 0 01.073.053L6.42 6.786V5.353c0-.053.017-.098.05-.133a.18.18 0 01.134-.054zM7.628 7.296a.206.206 0 01-.057.147.194.194 0 01-.143.057.194.194 0 01-.143-.057.206.206 0 01-.057-.147V5.92c0-.058.019-.106.057-.144a.189.189 0 01.143-.06c.058 0 .106.02.143.06a.194.194 0 01.057.144v1.376zM7.425 5.5c-.076 0-.13-.013-.16-.037-.031-.024-.047-.068-.047-.13V5.27c0-.063.017-.106.05-.13.033-.025.087-.037.16-.037.078 0 .132.012.163.037.031.024.047.067.047.13v.063c0 .064-.017.109-.05.133-.031.023-.086.034-.163.034zM9.41 5.72a.18.18 0 01.132.053.166.166 0 01.054.127c0 .026-.01.06-.027.1l-.623 1.373a.202.202 0 01-.17.127l-.03.003a.189.189 0 01-.107-.033.249.249 0 01-.073-.097L7.946 6a.264.264 0 01-.024-.107c0-.044.02-.084.057-.12a.19.19 0 01.14-.057c.042 0 .081.011.117.034a.206.206 0 01.08.093l.46 1.053.456-1.05a.22.22 0 01.074-.096.157.157 0 01.103-.03zM11.495 6.566a.171.171 0 01-.064.13.212.212 0 01-.14.05h-1.1a.51.51 0 00.507.42.765.765 0 00.213-.023.63.63 0 00.184-.093c.04-.02.077-.03.113-.03.047 0 .087.016.12.05a.16.16 0 01.05.116c0 .06-.031.115-.093.164a.977.977 0 01-.567.183.993.993 0 01-.49-.117.82.82 0 01-.32-.32.947.947 0 01-.113-.463c0-.191.04-.359.12-.503a.84.84 0 01.736-.447.77.77 0 01.414.12.893.893 0 01.43.763zm-.844-.516c-.258 0-.41.12-.456.363h.873V6.39a.344.344 0 00-.137-.24.432.432 0 00-.28-.1zM13.284 5.683a.194.194 0 01.2.203v1.41a.206.206 0 01-.056.147.194.194 0 01-.144.057.194.194 0 01-.143-.057.213.213 0 01-.056-.143.698.698 0 01-.227.166.681.681 0 01-.297.067.77.77 0 01-.416-.117.856.856 0 01-.297-.33 1.038 1.038 0 01-.107-.476c0-.178.036-.337.107-.477a.81.81 0 01.29-.33.743.743 0 01.41-.12c.107 0 .207.02.3.06a.762.762 0 01.236.147v-.004c0-.057.02-.105.057-.143a.189.189 0 01.143-.06zm-.673 1.483a.447.447 0 00.353-.156.594.594 0 00.137-.4.594.594 0 00-.137-.4.443.443 0 00-.353-.16.44.44 0 00-.35.16.594.594 0 00-.136.4c0 .16.044.293.133.4a.447.447 0 00.353.156zM15.209 5.716c.058 0 .105.02.143.06a.194.194 0 01.057.144v.846c0 .24-.067.428-.2.564-.131.135-.32.203-.564.203-.244 0-.432-.068-.563-.203-.131-.136-.197-.324-.197-.564V5.92c0-.058.02-.106.057-.144a.189.189 0 01.143-.06c.058 0 .106.02.144.06a.194.194 0 01.056.144v.846c0 .136.03.237.09.304.06.064.15.096.27.096.123 0 .214-.032.274-.096.06-.067.09-.168.09-.304V5.92c0-.058.019-.106.056-.144a.189.189 0 01.144-.06z" fill="#FBF9FA"/><path fill-rule="evenodd" clip-rule="evenodd" d="M10 18.75a8.75 8.75 0 100-17.5 8.75 8.75 0 000 17.5zM10 20c5.523 0 10-4.477 10-10S15.523 0 10 0 0 4.477 0 10s4.477 10 10 10z" fill="#FBF9FA"/><path d="M7.248 11.188c.31.123.56.31.753.56.198.251.297.575.297.972 0 .694-.198 1.178-.595 1.452-.396.274-.869.412-1.417.412H4.107a.54.54 0 01-.385-.15.54.54 0 01-.149-.384V8.992a.524.524 0 01.534-.534h2.205c1.108 0 1.662.52 1.662 1.558 0 .262-.064.496-.192.7-.123.198-.3.356-.534.473zm-.411-.98c0-.239-.061-.417-.184-.533-.116-.123-.283-.184-.499-.184H4.711v1.365h1.47a.654.654 0 00.455-.175.594.594 0 00.201-.472zm-.551 3.37c.274 0 .487-.074.638-.22.158-.145.237-.358.237-.638 0-.344-.09-.569-.272-.674a1.305 1.305 0 00-.665-.157H4.711v1.688h1.575zM10.663 8.459c.146 0 .268.052.368.157.099.1.148.225.148.376v5.058a.51.51 0 01-.166.385.594.594 0 01-.411.149.563.563 0 01-.403-.15.524.524 0 01-.157-.384V9.902l-.543.333a.535.535 0 01-.28.079.5.5 0 01-.376-.167.539.539 0 01-.149-.367.52.52 0 01.07-.263.577.577 0 01.202-.192l1.32-.788a.8.8 0 01.377-.079zM16.24 11.521c.14 0 .256.047.35.14.093.088.14.201.14.341s-.047.257-.14.35a.492.492 0 01-.35.131h-1.226v1.147a.53.53 0 01-.166.402.545.545 0 01-.403.158.575.575 0 01-.41-.158.545.545 0 01-.158-.402v-1.147h-1.2a.475.475 0 01-.49-.49c0-.14.048-.253.14-.34a.492.492 0 01.35-.132h1.2v-1.304c0-.163.052-.297.157-.402a.587.587 0 01.42-.158c.163 0 .298.053.403.158.105.105.157.239.157.402v1.304h1.225z" fill="#FBF9FA"/></svg>
